other/sokoban.svg

<?xml version="1.0" encoding="UTF-8" standalone="no"?>
<svg
   xmlns:dc="http://purl.org/dc/elements/1.1/"
   xmlns:cc="http://creativecommons.org/ns#"
   xmlns:rdf="http://www.w3.org/1999/02/22-rdf-syntax-ns#"
   xmlns:svg="http://www.w3.org/2000/svg"
   xmlns="http://www.w3.org/2000/svg"
   xmlns:sodipodi="http://sodipodi.sourceforge.net/DTD/sodipodi-0.dtd"
   xmlns:inkscape="http://www.inkscape.org/namespaces/inkscape"
   width="48"
   height="48"
   viewBox="0 0 48 48"
   version="1.1"
   id="svg1588"
   sodipodi:docname="sokoban_new.svg"
   inkscape:version="0.92.3 (2405546, 2018-03-11)">
  <metadata
     id="metadata1594">
    <rdf:RDF>
      <cc:Work
         rdf:about="">
        <dc:format>image/svg+xml</dc:format>
        <dc:type
           rdf:resource="http://purl.org/dc/dcmitype/StillImage" />
        <dc:title></dc:title>
      </cc:Work>
    </rdf:RDF>
  </metadata>
  <defs
     id="defs1592" />
  <sodipodi:namedview
     pagecolor="#ffffff"
     bordercolor="#666666"
     borderopacity="1"
     objecttolerance="10"
     gridtolerance="10"
     guidetolerance="10"
     inkscape:pageopacity="0"
     inkscape:pageshadow="2"
     inkscape:window-width="2560"
     inkscape:window-height="1385"
     id="namedview1590"
     showgrid="false"
     inkscape:pagecheckerboard="true"
     inkscape:zoom="9.8333333"
     inkscape:cx="25.016135"
     inkscape:cy="-1.2077263"
     inkscape:window-x="1920"
     inkscape:window-y="27"
     inkscape:window-maximized="1"
     inkscape:current-layer="svg1588" />
  <path
     inkscape:connector-curvature="0"
     style="fill:#ffffff;fill-rule:evenodd;stroke-width:3.00135827"
     d="M 24.593454,5.1001737 15.976256,29.967026 h 17.228396 z"
     id="path125" />
  <path
     inkscape:connector-curvature="0"
     style="fill:#ffffff;fill-rule:evenodd;stroke-width:3.00135827"
     d="m 16.360732,31.384866 8.230321,11.413266 8.224323,-11.413266 z"
     id="path127" />
  <path
     inkscape:connector-curvature="0"
     style="fill:#ffffff;fill-rule:evenodd;stroke-width:3.00135827"
     d="M 26.697406,6.8295557 34.705029,29.937613 41.780432,29.59762 Z"
     id="path129" />
  <path
     inkscape:connector-curvature="0"
     style="fill:#ffffff;fill-rule:evenodd;stroke-width:3.00135827"
     d="M 40.800788,31.069725 34.581074,31.368691 27.54649,41.13481 Z"
     id="path131" />
  <path
     inkscape:connector-curvature="0"
     style="fill:#ffffff;fill-rule:evenodd;stroke-width:3.00135827"
     d="M 22.483501,6.8295557 7.4004744,29.597559 14.475876,29.937552 Z"
     id="path133" />
  <path
     inkscape:connector-curvature="0"
     style="fill:#ffffff;fill-rule:evenodd;stroke-width:3.00135827"
     d="M 8.378019,31.069725 21.632014,41.134781 14.597733,31.368659 Z"
     id="path135" />
</svg>

<?xml version="1.0" encoding="UTF-8"?>
<svg version="1.1" viewBox="0 0 48 48" xmlns="http://www.w3.org/2000/svg">
    <path d="m24.593 5.1002-8.6172 24.867h17.228z" fill="#fff" fill-rule="evenodd" stroke-width="3.0014"/>
    <path d="m16.361 31.385 8.2303 11.413 8.2243-11.413z" fill="#fff" fill-rule="evenodd" stroke-width="3.0014"/>
    <path d="m26.697 6.8296 8.0076 23.108 7.0754-0.33999z" fill="#fff" fill-rule="evenodd" stroke-width="3.0014"/>
    <path d="m40.801 31.07-6.2197 0.29897-7.0346 9.7661z" fill="#fff" fill-rule="evenodd" stroke-width="3.0014"/>
    <path d="m22.484 6.8296-15.083 22.768 7.0754 0.33999z" fill="#fff" fill-rule="evenodd" stroke-width="3.0014"/>
    <path d="m8.378 31.07 13.254 10.065-7.0343-9.7661z" fill="#fff" fill-rule="evenodd" stroke-width="3.0014"/>
</svg>
